mobile/24/svg/whats-new-24.svg

<svg width="24" height="24" viewBox="0 0 24 24" fill="none" xmlns="http://www.w3.org/2000/svg">
<path fill-rule="evenodd" clip-rule="evenodd" d="M12 3.10744C11.3826 2.42714 10.4913 2 9.5 2C7.63575 2 6.125 3.51075 6.125 5.375C6.125 5.96415 6.27588 6.51799 6.54111 7H5.5C4.11975 7 3 8.11975 3 9.5V10.5C3 11.3175 3.39285 12.0437 4 12.4999V19.5C4 20.8802 5.11975 22 6.5 22H17.5C18.8802 22 19.9999 20.8802 20 19.5L20.0009 12.4992C20.6075 12.043 21 11.3171 21 10.5V9.5C21 8.11975 19.8802 7 18.5 7H17.4589C17.7241 6.51799 17.875 5.96415 17.875 5.375C17.875 3.51075 16.3642 2 14.5 2C13.5087 2 12.6174 2.42714 12 3.10744ZM9.5 3.75C8.60225 3.75 7.875 4.47725 7.875 5.375C7.875 6.27275 8.60225 7 9.5 7H11.125V5.375C11.125 4.47725 10.3978 3.75 9.5 3.75ZM12.875 8.75V11.25H18.5C18.9138 11.25 19.25 10.9138 19.25 10.5V9.5C19.25 9.08625 18.9138 8.75 18.5 8.75H12.875ZM14.5 7C15.3978 7 16.125 6.27275 16.125 5.375C16.125 4.47725 15.3978 3.75 14.5 3.75C13.6022 3.75 12.875 4.47725 12.875 5.375V7H14.5ZM5.5 8.75H11.125V11.25H5.5C5.08625 11.25 4.75 10.9138 4.75 10.5V9.5C4.75 9.08625 5.08625 8.75 5.5 8.75ZM12.875 13H18.2509L18.25 19.5C18.25 19.9137 17.9138 20.25 17.5 20.25H12.875V13ZM11.125 13V20.25H6.5C6.08625 20.25 5.75 19.9137 5.75 19.5V13H11.125Z" fill="black"/>
</svg>

<svg width="24" height="24" fill="none" xmlns="http://www.w3.org/2000/svg"><path fill-rule="evenodd" clip-rule="evenodd" d="M12 3.107A3.375 3.375 0 0 0 6.541 7H5.5A2.5 2.5 0 0 0 3 9.5v1c0 .818.393 1.544 1 2v7A2.5 2.5 0 0 0 6.5 22h11a2.5 2.5 0 0 0 2.5-2.5v-7c.608-.457 1-1.183 1-2v-1A2.5 2.5 0 0 0 18.5 7h-1.041A3.375 3.375 0 0 0 12 3.107zm-2.5.643A1.625 1.625 0 1 0 9.5 7h1.625V5.375c0-.898-.727-1.625-1.625-1.625zm3.375 5v2.5H18.5a.75.75 0 0 0 .75-.75v-1a.75.75 0 0 0-.75-.75h-5.625zM14.5 7a1.625 1.625 0 1 0-1.625-1.625V7H14.5zm-9 1.75h5.625v2.5H5.5a.75.75 0 0 1-.75-.75v-1a.75.75 0 0 1 .75-.75zM12.875 13h5.376l-.001 6.5a.75.75 0 0 1-.75.75h-4.625V13zm-1.75 0v7.25H6.5a.75.75 0 0 1-.75-.75V13h5.375z" fill="#000"/></svg>
